packages/ui/public/icons/sidebar-home-icon.svg

<svg width="24" height="24" viewBox="0 0 24 24" xmlns="http://www.w3.org/2000/svg">
  <path opacity="0.4" d="M8.12601 14C8.57005 15.7252 10.1361 17 12 17C13.8638 17 15.4299 15.7252 15.874 14" stroke="gray" stroke-width="2" stroke-linecap="round" stroke-linejoin="round" />
  <path d="M3 10.5649C3 9.99046 3 9.70328 3.07403 9.43881C3.1396 9.20454 3.24737 8.9842 3.39203 8.78862C3.55534 8.56782 3.78202 8.39151 4.23539 8.03888L11.0177 2.76376C11.369 2.49051 11.5447 2.35388 11.7387 2.30136C11.9098 2.25502 12.0902 2.25502 12.2613 2.30136C12.4553 2.35388 12.631 2.49051 12.9823 2.76376L19.7646 8.03889C20.218 8.39151 20.4447 8.56782 20.608 8.78862C20.7526 8.9842 20.8604 9.20454 20.926 9.43881C21 9.70328 21 9.99046 21 10.5649V17.7998C21 18.9199 21 19.4799 20.782 19.9078C20.5903 20.2841 20.2843 20.5901 19.908 20.7818C19.4802 20.9998 18.9201 20.9998 17.8 20.9998H6.2C5.07989 20.9998 4.51984 20.9998 4.09202 20.7818C3.71569 20.5901 3.40973 20.2841 3.21799 19.9078C3 19.4799 3 18.9199 3 17.7998V10.5649Z" stroke-linecap="round" stroke-linejoin="round" />
</svg>

<svg width="24" height="24" xmlns="http://www.w3.org/2000/svg"><path opacity=".4" d="M8.126 14a4.002 4.002 0 0 0 7.748 0" stroke="gray" stroke-width="2" stroke-linecap="round" stroke-linejoin="round"/><path d="M3 10.565c0-.575 0-.862.074-1.126a2 2 0 0 1 .318-.65c.163-.221.39-.397.843-.75l6.783-5.275c.351-.273.527-.41.72-.463a1 1 0 0 1 .523 0c.194.053.37.19.721.463l6.783 5.275c.453.353.68.529.843.75.145.195.252.416.318.65.074.264.074.551.074 1.126V17.8c0 1.12 0 1.68-.218 2.108a2 2 0 0 1-.874.874C19.48 21 18.92 21 17.8 21H6.2c-1.12 0-1.68 0-2.108-.218a2 2 0 0 1-.874-.874C3 19.48 3 18.92 3 17.8v-7.235Z"/></svg>
